X:1
T: The Edenderry Reel
C:
R:Reel
Q: 232
K:G
M:4/4
L:1/8
|:B2 AG BG GA|B2 AG Bd gd|B2 AG BG GB|AG BG AG EG|
B2 AG BG GA|B2 AG Bd gd|B2 AG BG GB|AG BG AG EG|
gf ga ge de|ga bg ag ab|gf ga ge dB|A2 BG AG EG|
gf ga ge de|ga bg a2 ga|bg af ge dB|A2 BG AG EG:|
